X:146
T: Espen - Zweiglein
N: A0178A
O: Europa, Mitteleuropa, Deutschland
N: Forster III 1549 No. 27
R: Romanze, Ballade, Lied
M: 4/2
L: 1/8
K: G
z4G4G4G4 | c4A4B4c4 | d8z4
G4c4d4 | e4d2c2B4c4 | d8c4
c4 | B4c4d4e4 | e4d4c6BA | G8c8 |
A6B2c4d4- | d4c4B4B4 | A4G4A8 | G8z8

@@@ Tune index: 146
